incomeartour/img/icons/airplane.svg

<svg width="23" height="28" viewBox="0 0 23 28" fill="none" xmlns="http://www.w3.org/2000/svg">
<path d="M20.8866 21.9085L13.9496 14.5473L9.91284 21.5392L10.697 25.348L9.72818 27.0261L6.45862 23.6468L1.89729 22.5049L2.86611 20.8268L6.55674 19.6015L10.5935 12.6097L0.75 10.2827L2.68766 6.92653L13.3818 7.13436L16.2882 2.10023C16.9243 0.998477 18.3304 0.668995 19.3762 1.27278C20.422 1.87658 20.8398 3.25906 20.2037 4.36081L17.2972 9.39494L22.8243 18.5524L20.8866 21.9085Z" fill="black"/>
</svg>

<svg width="23" height="28" fill="none" xmlns="http://www.w3.org/2000/svg"><path d="M20.887 21.909l-6.937-7.362-4.037 6.992.784 3.809-.969 1.678-3.27-3.38-4.56-1.141.968-1.678 3.69-1.226 4.038-6.991L.75 10.283l1.938-3.356 10.694.207L16.288 2.1c.636-1.102 2.042-1.43 3.088-.827 1.046.604 1.464 1.986.828 3.088l-2.907 5.034 5.527 9.157-1.937 3.357z" fill="#000"/></svg>
